Newaita-dark/apps/24/preferences-desktop-color.svg

<?xml version="1.0" encoding="UTF-8"?>
<svg xmlns="http://www.w3.org/2000/svg" xmlns:xlink="http://www.w3.org/1999/xlink" width="24pt" height="24pt" viewBox="0 0 24 24" version="1.1">
<defs>
<linearGradient id="linear0" gradientUnits="userSpaceOnUse" x1="254" y1="233.5" x2="254" y2="254.666672" gradientTransform="matrix(0.0468795,0,0,0.0468795,-0.0000028613,9.656451)">
<stop offset="0" style="stop-color:rgb(0%,0%,0%);stop-opacity:0.27451;"/>
<stop offset="1" style="stop-color:rgb(0%,0%,0%);stop-opacity:0;"/>
</linearGradient>
<radialGradient id="radial0" gradientUnits="userSpaceOnUse" cx="450.908936" cy="189.579361" fx="450.908936" fy="189.579361" r="21.166656" gradientTransform="matrix(0.000000130628,-0.0585994,-0.105479,-0.0000000761539,38.601845,47.273862)">
<stop offset="0" style="stop-color:rgb(0%,0%,0%);stop-opacity:0.313725;"/>
<stop offset="0.222222" style="stop-color:rgb(0%,0%,0%);stop-opacity:0.27451;"/>
<stop offset="1" style="stop-color:rgb(0%,0%,0%);stop-opacity:0;"/>
</radialGradient>
<radialGradient id="radial1" gradientUnits="userSpaceOnUse" cx="450.908936" cy="189.579361" fx="450.908936" fy="189.579361" r="21.166656" gradientTransform="matrix(-0.000000130628,0.0585994,0.105479,0.0000000761539,-14.787073,-6.068247)">
<stop offset="0" style="stop-color:rgb(0%,0%,0%);stop-opacity:0.313725;"/>
<stop offset="0.222222" style="stop-color:rgb(0%,0%,0%);stop-opacity:0.27451;"/>
<stop offset="1" style="stop-color:rgb(0%,0%,0%);stop-opacity:0;"/>
</radialGradient>
<radialGradient id="radial2" gradientUnits="userSpaceOnUse" cx="450.908936" cy="189.579361" fx="450.908936" fy="189.579361" r="21.166656" gradientTransform="matrix(-0.000000130628,-0.0585994,0.105479,-0.0000000761539,-14.787073,47.273862)">
<stop offset="0" style="stop-color:rgb(0%,0%,0%);stop-opacity:0.313725;"/>
<stop offset="0.222222" style="stop-color:rgb(0%,0%,0%);stop-opacity:0.27451;"/>
<stop offset="1" style="stop-color:rgb(0%,0%,0%);stop-opacity:0;"/>
</radialGradient>
<radialGradient id="radial3" gradientUnits="userSpaceOnUse" cx="450.908936" cy="189.579361" fx="450.908936" fy="189.579361" r="21.166656" gradientTransform="matrix(0.000000130628,0.0585994,-0.105479,0.0000000761539,38.601843,-6.068247)">
<stop offset="0" style="stop-color:rgb(0%,0%,0%);stop-opacity:0.313725;"/>
<stop offset="0.222222" style="stop-color:rgb(0%,0%,0%);stop-opacity:0.27451;"/>
<stop offset="1" style="stop-color:rgb(0%,0%,0%);stop-opacity:0;"/>
</radialGradient>
<linearGradient id="linear1" gradientUnits="userSpaceOnUse" x1="127" y1="-31.083334" x2="127" y2="-158.083328" gradientTransform="matrix(1,0,0,1,0,0)">
<stop offset="0" style="stop-color:rgb(61.176471%,80%,39.607843%);stop-opacity:1;"/>
<stop offset="1" style="stop-color:rgb(68.235294%,83.529412%,50.588235%);stop-opacity:1;"/>
</linearGradient>
<linearGradient id="linear2" gradientUnits="userSpaceOnUse" x1="381" y1="-31.083334" x2="381" y2="-158.083328" gradientTransform="matrix(1,0,0,1,0,0)">
<stop offset="0" style="stop-color:rgb(100%,93.333333%,34.509804%);stop-opacity:1;"/>
<stop offset="1" style="stop-color:rgb(100%,94.509804%,46.27451%);stop-opacity:1;"/>
</linearGradient>
<linearGradient id="linear3" gradientUnits="userSpaceOnUse" x1="127" y1="222.916672" x2="127" y2="95.916664" gradientTransform="matrix(1,0,0,1,0,0)">
<stop offset="0" style="stop-color:rgb(49.411765%,34.117647%,76.078431%);stop-opacity:1;"/>
<stop offset="1" style="stop-color:rgb(58.431373%,45.882353%,80.392157%);stop-opacity:1;"/>
</linearGradient>
<linearGradient id="linear4" gradientUnits="userSpaceOnUse" x1="127" y1="95.916664" x2="127" y2="-31.083334" gradientTransform="matrix(1,0,0,1,0,0)">
<stop offset="0" style="stop-color:rgb(100%,43.921569%,26.27451%);stop-opacity:1;"/>
<stop offset="1" style="stop-color:rgb(100%,54.117647%,39.607843%);stop-opacity:1;"/>
</linearGradient>
<linearGradient id="linear5" gradientUnits="userSpaceOnUse" x1="381" y1="222.916672" x2="381" y2="95.916664" gradientTransform="matrix(1,0,0,1,0,0)">
<stop offset="0" style="stop-color:rgb(16.078431%,71.372549%,96.470588%);stop-opacity:1;"/>
<stop offset="1" style="stop-color:rgb(30.980392%,76.470588%,96.862745%);stop-opacity:1;"/>
</linearGradient>
<linearGradient id="linear6" gradientUnits="userSpaceOnUse" x1="381" y1="95.916664" x2="381" y2="-31.083334" gradientTransform="matrix(1,0,0,1,0,0)">
<stop offset="0" style="stop-color:rgb(92.54902%,25.098039%,47.843137%);stop-opacity:1;"/>
<stop offset="1" style="stop-color:rgb(94.117647%,38.431373%,57.254902%);stop-opacity:1;"/>
</linearGradient>
<linearGradient id="linear7" gradientUnits="userSpaceOnUse" x1="254" y1="95.916664" x2="254" y2="-31.083334" gradientTransform="matrix(1,0,0,1,0,0)">
<stop offset="0" style="stop-color:rgb(93.72549%,32.54902%,31.372549%);stop-opacity:1;"/>
<stop offset="1" style="stop-color:rgb(89.803922%,45.098039%,45.098039%);stop-opacity:1;"/>
</linearGradient>
<linearGradient id="linear8" gradientUnits="userSpaceOnUse" x1="254" y1="222.916672" x2="254" y2="95.916664" gradientTransform="matrix(1,0,0,1,0,0)">
<stop offset="0" style="stop-color:rgb(36.078431%,41.960784%,75.294118%);stop-opacity:1;"/>
<stop offset="1" style="stop-color:rgb(47.45098%,52.54902%,79.607843%);stop-opacity:1;"/>
</linearGradient>
<linearGradient id="linear9" gradientUnits="userSpaceOnUse" x1="254" y1="-31.083334" x2="254" y2="-158.083328" gradientTransform="matrix(1,0,0,1,0,0)">
<stop offset="0" style="stop-color:rgb(83.137255%,88.235294%,34.117647%);stop-opacity:1;"/>
<stop offset="1" style="stop-color:rgb(86.27451%,90.588235%,45.882353%);stop-opacity:1;"/>
</linearGradient>
</defs>
<g id="surface1">
<path style=" stroke:none;fill-rule:nonzero;fill:url(#linear0);" d="M 4.960938 20.566406 L 18.851562 20.566406 L 18.851562 21.632812 L 4.960938 21.632812 Z M 4.960938 20.566406 "/>
<path style=" stroke:none;fill-rule:nonzero;fill:url(#radial0);" d="M 18.851562 20.601562 L 20.839844 20.601562 L 20.839844 19.609375 L 18.851562 19.609375 Z M 18.851562 20.601562 "/>
<path style=" stroke:none;fill-rule:nonzero;fill:url(#radial1);" d="M 4.960938 20.601562 L 2.976562 20.601562 L 2.976562 21.59375 L 4.960938 21.59375 Z M 4.960938 20.601562 "/>
<path style=" stroke:none;fill-rule:nonzero;fill:url(#radial2);" d="M 4.960938 20.601562 L 2.976562 20.601562 L 2.976562 19.609375 L 4.960938 19.609375 Z M 4.960938 20.601562 "/>
<path style=" stroke:none;fill-rule:nonzero;fill:url(#radial3);" d="M 18.851562 20.601562 L 20.839844 20.601562 L 20.839844 21.59375 L 18.851562 21.59375 Z M 18.851562 20.601562 "/>
<path style="fill-rule:nonzero;fill:url(#linear1);stroke-width:3;stroke-linecap:round;stroke-linejoin:miter;stroke:rgb(12.941177%,12.941177%,12.941177%);stroke-opacity:1;stroke-miterlimit:4;" d="M 84.658582 -158.088768 L 190.48181 -158.088768 C 202.230688 -158.088768 211.646455 -148.589675 211.646455 -136.924123 L 211.646455 -31.100895 C 211.646455 -19.352017 202.230688 -9.936249 190.48181 -9.936249 L 84.658582 -9.936249 C 72.99303 -9.936249 63.493937 -19.352017 63.493937 -31.100895 L 63.493937 -136.924123 C 63.493937 -148.589675 72.99303 -158.088768 84.658582 -158.088768 Z M 84.658582 -158.088768 " transform="matrix(0.0468795,0,0,0.0468795,0,10.079087)"/>
<path style="fill-rule:nonzero;fill:url(#linear2);stroke-width:3;stroke-linecap:round;stroke-linejoin:miter;stroke:rgb(12.941177%,12.941177%,12.941177%);stroke-opacity:1;stroke-miterlimit:4;" d="M 317.469683 -158.088768 L 423.292911 -158.088768 C 435.041789 -158.088768 444.540882 -148.589675 444.540882 -136.924123 L 444.540882 -31.100895 C 444.540882 -19.352017 435.041789 -9.936249 423.292911 -9.936249 L 317.469683 -9.936249 C 305.80413 -9.936249 296.305038 -19.352017 296.305038 -31.100895 L 296.305038 -136.924123 C 296.305038 -148.589675 305.80413 -158.088768 317.469683 -158.088768 Z M 317.469683 -158.088768 " transform="matrix(0.0468795,0,0,0.0468795,0,10.079087)"/>
<path style="fill-rule:nonzero;fill:url(#linear3);stroke-width:3;stroke-linecap:round;stroke-linejoin:miter;stroke:rgb(12.941177%,12.941177%,12.941177%);stroke-opacity:1;stroke-miterlimit:4;" d="M 84.658582 74.722333 L 190.48181 74.722333 C 202.230688 74.722333 211.646455 84.221426 211.646455 95.886978 L 211.646455 201.710206 C 211.646455 213.459084 202.230688 222.958177 190.48181 222.958177 L 84.658582 222.958177 C 72.99303 222.958177 63.493937 213.459084 63.493937 201.710206 L 63.493937 95.886978 C 63.493937 84.221426 72.99303 74.722333 84.658582 74.722333 Z M 84.658582 74.722333 " transform="matrix(0.0468795,0,0,0.0468795,0,10.079087)"/>
<path style="fill-rule:nonzero;fill:url(#linear4);stroke-width:3;stroke-linecap:round;stroke-linejoin:miter;stroke:rgb(12.941177%,12.941177%,12.941177%);stroke-opacity:1;stroke-miterlimit:4;" d="M 63.493937 -31.100895 L 190.48181 -31.100895 L 190.48181 95.886978 L 63.493937 95.886978 Z M 63.493937 -31.100895 " transform="matrix(0.0468795,0,0,0.0468795,0,10.079087)"/>
<path style="fill-rule:nonzero;fill:url(#linear5);stroke-width:3;stroke-linecap:round;stroke-linejoin:miter;stroke:rgb(12.941177%,12.941177%,12.941177%);stroke-opacity:1;stroke-miterlimit:4;" d="M 317.469683 74.722333 L 423.292911 74.722333 C 435.041789 74.722333 444.540882 84.221426 444.540882 95.886978 L 444.540882 201.710206 C 444.540882 213.459084 435.041789 222.958177 423.292911 222.958177 L 317.469683 222.958177 C 305.80413 222.958177 296.305038 213.459084 296.305038 201.710206 L 296.305038 95.886978 C 296.305038 84.221426 305.80413 74.722333 317.469683 74.722333 Z M 317.469683 74.722333 " transform="matrix(0.0468795,0,0,0.0468795,0,10.079087)"/>
<path style="fill-rule:nonzero;fill:url(#linear6);stroke-width:3;stroke-linecap:round;stroke-linejoin:miter;stroke:rgb(12.941177%,12.941177%,12.941177%);stroke-opacity:1;stroke-miterlimit:4;" d="M 317.469683 -31.100895 L 444.540882 -31.100895 L 444.540882 95.886978 L 317.469683 95.886978 Z M 317.469683 -31.100895 " transform="matrix(0.0468795,0,0,0.0468795,0,10.079087)"/>
<path style="fill-rule:nonzero;fill:url(#linear7);stroke-width:3;stroke-linecap:round;stroke-linejoin:miter;stroke:rgb(12.941177%,12.941177%,12.941177%);stroke-opacity:1;stroke-miterlimit:4;" d="M 190.48181 -31.100895 L 317.469683 -31.100895 L 317.469683 95.886978 L 190.48181 95.886978 Z M 190.48181 -31.100895 " transform="matrix(0.0468795,0,0,0.0468795,0,10.079087)"/>
<path style="fill-rule:nonzero;fill:url(#linear8);stroke-width:3;stroke-linecap:round;stroke-linejoin:miter;stroke:rgb(12.941177%,12.941177%,12.941177%);stroke-opacity:1;stroke-miterlimit:4;" d="M 190.48181 95.886978 L 317.469683 95.886978 L 317.469683 222.958177 L 190.48181 222.958177 Z M 190.48181 95.886978 " transform="matrix(0.0468795,0,0,0.0468795,0,10.079087)"/>
<path style="fill-rule:nonzero;fill:url(#linear9);stroke-width:3;stroke-linecap:round;stroke-linejoin:miter;stroke:rgb(12.941177%,12.941177%,12.941177%);stroke-opacity:1;stroke-miterlimit:4;" d="M 190.48181 -158.088768 L 317.469683 -158.088768 L 317.469683 -31.100895 L 190.48181 -31.100895 Z M 190.48181 -158.088768 " transform="matrix(0.0468795,0,0,0.0468795,0,10.079087)"/>
<path style=" stroke:none;fill-rule:nonzero;fill:rgb(100%,100%,100%);fill-opacity:0.784314;" d="M 3.96875 2.667969 C 3.417969 2.667969 2.976562 3.109375 2.976562 3.660156 L 2.976562 3.796875 C 2.976562 3.246094 3.417969 2.804688 3.96875 2.804688 L 19.84375 2.804688 C 20.394531 2.804688 20.839844 3.246094 20.839844 3.796875 L 20.839844 3.660156 C 20.839844 3.109375 20.394531 2.667969 19.84375 2.667969 Z M 3.96875 2.667969 "/>
<path style=" stroke:none;fill-rule:nonzero;fill:rgb(0%,0%,0%);fill-opacity:0.235294;" d="M 3.96875 20.539062 C 3.417969 20.539062 2.976562 20.097656 2.976562 19.546875 L 2.976562 19.414062 C 2.976562 19.960938 3.417969 20.40625 3.96875 20.40625 L 19.84375 20.40625 C 20.394531 20.40625 20.839844 19.960938 20.839844 19.414062 L 20.839844 19.546875 C 20.839844 20.097656 20.394531 20.539062 19.84375 20.539062 Z M 3.96875 20.539062 "/>
<path style=" stroke:none;fill-rule:nonzero;fill:rgb(12.941177%,12.941177%,12.941177%);fill-opacity:1;" d="M 3.96875 2.597656 C 3.382812 2.597656 2.90625 3.074219 2.90625 3.660156 L 2.90625 19.535156 C 2.90625 20.125 3.382812 20.597656 3.96875 20.597656 L 19.84375 20.597656 C 20.433594 20.597656 20.910156 20.125 20.910156 19.535156 L 20.910156 3.660156 C 20.910156 3.074219 20.433594 2.597656 19.84375 2.597656 Z M 3.96875 2.738281 L 19.84375 2.738281 C 20.359375 2.738281 20.769531 3.148438 20.769531 3.660156 L 20.769531 19.535156 C 20.769531 20.050781 20.359375 20.457031 19.84375 20.457031 L 3.96875 20.457031 C 3.457031 20.457031 3.046875 20.050781 3.046875 19.535156 L 3.046875 3.660156 C 3.046875 3.148438 3.457031 2.738281 3.96875 2.738281 Z M 3.96875 2.738281 "/>
</g>
</svg>

<svg xmlns="http://www.w3.org/2000/svg" width="32" height="32" viewBox="0 0 24 24"><defs><linearGradient id="a" gradientUnits="userSpaceOnUse" x1="254" y1="233.5" x2="254" y2="254.667" gradientTransform="matrix(.04688 0 0 .04688 0 9.656)"><stop offset="0" stop-opacity=".275"/><stop offset="1" stop-opacity="0"/></linearGradient><radialGradient id="b" gradientUnits="userSpaceOnUse" cx="450.909" cy="189.579" fx="450.909" fy="189.579" r="21.167" gradientTransform="matrix(0 -.0586 -.10548 0 38.602 47.274)"><stop offset="0" stop-opacity=".314"/><stop offset=".222" stop-opacity=".275"/><stop offset="1" stop-opacity="0"/></radialGradient><radialGradient id="c" gradientUnits="userSpaceOnUse" cx="450.909" cy="189.579" fx="450.909" fy="189.579" r="21.167" gradientTransform="matrix(0 .0586 .10548 0 -14.787 -6.068)"><stop offset="0" stop-opacity=".314"/><stop offset=".222" stop-opacity=".275"/><stop offset="1" stop-opacity="0"/></radialGradient><radialGradient id="d" gradientUnits="userSpaceOnUse" cx="450.909" cy="189.579" fx="450.909" fy="189.579" r="21.167" gradientTransform="matrix(0 -.0586 .10548 0 -14.787 47.274)"><stop offset="0" stop-opacity=".314"/><stop offset=".222" stop-opacity=".275"/><stop offset="1" stop-opacity="0"/></radialGradient><radialGradient id="e" gradientUnits="userSpaceOnUse" cx="450.909" cy="189.579" fx="450.909" fy="189.579" r="21.167" gradientTransform="matrix(0 .0586 -.10548 0 38.602 -6.068)"><stop offset="0" stop-opacity=".314"/><stop offset=".222" stop-opacity=".275"/><stop offset="1" stop-opacity="0"/></radialGradient><linearGradient id="f" gradientUnits="userSpaceOnUse" x1="127" y1="-31.083" x2="127" y2="-158.083"><stop offset="0" stop-color="#9ccc65"/><stop offset="1" stop-color="#aed581"/></linearGradient><linearGradient id="g" gradientUnits="userSpaceOnUse" x1="381" y1="-31.083" x2="381" y2="-158.083"><stop offset="0" stop-color="#ffee58"/><stop offset="1" stop-color="#fff176"/></linearGradient><linearGradient id="h" gradientUnits="userSpaceOnUse" x1="127" y1="222.917" x2="127" y2="95.917"><stop offset="0" stop-color="#7e57c2"/><stop offset="1" stop-color="#9575cd"/></linearGradient><linearGradient id="i" gradientUnits="userSpaceOnUse" x1="127" y1="95.917" x2="127" y2="-31.083"><stop offset="0" stop-color="#ff7043"/><stop offset="1" stop-color="#ff8a65"/></linearGradient><linearGradient id="j" gradientUnits="userSpaceOnUse" x1="381" y1="222.917" x2="381" y2="95.917"><stop offset="0" stop-color="#29b6f6"/><stop offset="1" stop-color="#4fc3f7"/></linearGradient><linearGradient id="k" gradientUnits="userSpaceOnUse" x1="381" y1="95.917" x2="381" y2="-31.083"><stop offset="0" stop-color="#ec407a"/><stop offset="1" stop-color="#f06292"/></linearGradient><linearGradient id="l" gradientUnits="userSpaceOnUse" x1="254" y1="95.917" x2="254" y2="-31.083"><stop offset="0" stop-color="#ef5350"/><stop offset="1" stop-color="#e57373"/></linearGradient><linearGradient id="m" gradientUnits="userSpaceOnUse" x1="254" y1="222.917" x2="254" y2="95.917"><stop offset="0" stop-color="#5c6bc0"/><stop offset="1" stop-color="#7986cb"/></linearGradient><linearGradient id="n" gradientUnits="userSpaceOnUse" x1="254" y1="-31.083" x2="254" y2="-158.083"><stop offset="0" stop-color="#d4e157"/><stop offset="1" stop-color="#dce775"/></linearGradient></defs><path d="M4.96 20.566h13.892v1.067H4.96zm0 0" fill="url(#a)"/><path d="M18.852 20.602h1.988v-.993h-1.988zm0 0" fill="url(#b)"/><path d="M4.96 20.602H2.978v.992H4.96zm0 0" fill="url(#c)"/><path d="M4.96 20.602H2.978v-.993H4.96zm0 0" fill="url(#d)"/><path d="M18.852 20.602h1.988v.992h-1.988zm0 0" fill="url(#e)"/><path d="M84.659-158.089h105.823c11.749 0 21.164 9.5 21.164 21.165v105.823a21.088 21.088 0 0 1-21.164 21.165H84.659c-11.666 0-21.165-9.416-21.165-21.165v-105.823c0-11.666 9.499-21.165 21.165-21.165zm0 0" transform="matrix(.04688 0 0 .04688 0 10.08)" fill="url(#f)" stroke-width="3" stroke-linecap="round" stroke="#212121"/><path d="M317.47-158.089h105.823c11.749 0 21.248 9.5 21.248 21.165v105.823c0 11.749-9.5 21.165-21.248 21.165H317.47c-11.666 0-21.165-9.416-21.165-21.165v-105.823c0-11.666 9.5-21.165 21.165-21.165zm0 0" transform="matrix(.04688 0 0 .04688 0 10.08)" fill="url(#g)" stroke-width="3" stroke-linecap="round" stroke="#212121"/><path d="M84.659 74.722h105.823c11.749 0 21.164 9.5 21.164 21.165V201.71c0 11.75-9.415 21.248-21.164 21.248H84.659c-11.666 0-21.165-9.499-21.165-21.248V95.887c0-11.666 9.499-21.165 21.165-21.165zm0 0" transform="matrix(.04688 0 0 .04688 0 10.08)" fill="url(#h)" stroke-width="3" stroke-linecap="round" stroke="#212121"/><path d="M63.494-31.1h126.988V95.886H63.494zm0 0" transform="matrix(.04688 0 0 .04688 0 10.08)" fill="url(#i)" stroke-width="3" stroke-linecap="round" stroke="#212121"/><path d="M317.47 74.722h105.823c11.749 0 21.248 9.5 21.248 21.165V201.71c0 11.75-9.5 21.248-21.248 21.248H317.47c-11.666 0-21.165-9.499-21.165-21.248V95.887c0-11.666 9.5-21.165 21.165-21.165zm0 0" transform="matrix(.04688 0 0 .04688 0 10.08)" fill="url(#j)" stroke-width="3" stroke-linecap="round" stroke="#212121"/><path d="M317.47-31.1h127.07V95.886H317.47zm0 0" transform="matrix(.04688 0 0 .04688 0 10.08)" fill="url(#k)" stroke-width="3" stroke-linecap="round" stroke="#212121"/><path d="M190.482-31.1H317.47V95.886H190.482zm0 0" transform="matrix(.04688 0 0 .04688 0 10.08)" fill="url(#l)" stroke-width="3" stroke-linecap="round" stroke="#212121"/><path d="M190.482 95.887H317.47v127.071H190.482zm0 0" transform="matrix(.04688 0 0 .04688 0 10.08)" fill="url(#m)" stroke-width="3" stroke-linecap="round" stroke="#212121"/><path d="M190.482-158.089H317.47V-31.1H190.482zm0 0" transform="matrix(.04688 0 0 .04688 0 10.08)" fill="url(#n)" stroke-width="3" stroke-linecap="round" stroke="#212121"/><path d="M3.969 2.668a.989.989 0 0 0-.992.992v.137c0-.55.441-.992.992-.992h15.875c.55 0 .996.441.996.992V3.66a.992.992 0 0 0-.996-.992zm0 0" fill="#fff" fill-opacity=".784"/><path d="M3.969 20.54a.989.989 0 0 1-.992-.993v-.133c0 .547.441.992.992.992h15.875c.55 0 .996-.445.996-.992v.133c0 .55-.445.992-.996.992zm0 0" fill-opacity=".235"/><path d="M3.969 2.598c-.586 0-1.063.476-1.063 1.062v15.875c0 .59.477 1.063 1.063 1.063h15.875c.59 0 1.066-.473 1.066-1.063V3.66c0-.586-.476-1.062-1.066-1.062zm0 .14h15.875a.92.92 0 0 1 .926.922v15.875c0 .516-.41.922-.926.922H3.969a.916.916 0 0 1-.922-.922V3.66c0-.512.41-.922.922-.922zm0 0" fill="#212121"/></svg>
